styles/2/Numix/32/places/custom-folder-documents.svg

<?xml version="1.0" encoding="UTF-8" standalone="no"?>
<svg
   xmlns:dc="http://purl.org/dc/elements/1.1/"
   xmlns:cc="http://creativecommons.org/ns#"
   xmlns:rdf="http://www.w3.org/1999/02/22-rdf-syntax-ns#"
   xmlns:svg="http://www.w3.org/2000/svg"
   xmlns="http://www.w3.org/2000/svg"
   xmlns:sodipodi="http://sodipodi.sourceforge.net/DTD/sodipodi-0.dtd"
   xmlns:inkscape="http://www.inkscape.org/namespaces/inkscape"
   width="32"
   height="32"
   viewBox="0 0 32 32"
   id="svg2"
   version="1.1"
   inkscape:version="0.91 r"
   sodipodi:docname="custom-folder-documents.svg">
  <metadata
     id="metadata18">
    <rdf:RDF>
      <cc:Work
         rdf:about="">
        <dc:format>image/svg+xml</dc:format>
        <dc:type
           rdf:resource="http://purl.org/dc/dcmitype/StillImage" />
      </cc:Work>
    </rdf:RDF>
  </metadata>
  <defs
     id="defs16" />
  <sodipodi:namedview
     pagecolor="#ffffff"
     bordercolor="#666666"
     borderopacity="1"
     objecttolerance="10"
     gridtolerance="10"
     guidetolerance="10"
     inkscape:pageopacity="0"
     inkscape:pageshadow="2"
     inkscape:window-width="1280"
     inkscape:window-height="998"
     id="namedview14"
     showgrid="false"
     inkscape:zoom="14.75"
     inkscape:cx="10.920557"
     inkscape:cy="17.856879"
     inkscape:window-x="0"
     inkscape:window-y="0"
     inkscape:window-maximized="1"
     inkscape:current-layer="svg2" />
  <path
     style="font-size:medium;font-style:normal;font-variant:normal;font-weight:normal;font-stretch:normal;text-indent:0;text-align:start;text-decoration:none;line-height:normal;letter-spacing:normal;word-spacing:normal;text-transform:none;direction:ltr;block-progression:tb;writing-mode:lr-tb;text-anchor:start;baseline-shift:baseline;color:replacecolour3;fill:replacecolour1;fill-opacity:1;fill-rule:nonzero;stroke:none;stroke-width:1;marker:none;visibility:visible;display:inline;overflow:visible;enable-background:accumulate;font-family:Sans;-inkscape-font-specification:Sans"
     d="m 3.9999998,4 c -0.4916,0 -1,0.473119 -1,1 l 0,1 c -0.666666,0 -0.833333,0 -1.5,0 C 0.5208383,6 0,6.494035 0,7.5 l 0,19 C 0,27.531461 0.5230687,28 1.4999998,28 L 30.34375,28 C 31.21572,28 32,27.376781 32,26.5 l 0,-17 C 32,8.558678 31.574893,8 30.5,8 L 28,8 28,5 C 28,4.473119 27.4916,4 27,4 z"
     id="path3004"
     inkscape:connector-curvature="0"
     sodipodi:nodetypes="ssccssssscccsss" />
  <path
     style="font-size:medium;font-style:normal;font-variant:normal;font-weight:normal;font-stretch:normal;text-indent:0;text-align:start;text-decoration:none;line-height:normal;letter-spacing:normal;word-spacing:normal;text-transform:none;direction:ltr;block-progression:tb;writing-mode:lr-tb;text-anchor:start;baseline-shift:baseline;color:replacecolour3;fill:replacecolour2;fill-opacity:1.;fill-rule:nonzero;stroke:none;stroke-width:1;marker:none;visibility:visible;display:inline;overflow:visible;enable-background:accumulate;font-family:Sans;-inkscape-font-specification:Sans"
     d="m 3.9999998,4 c -0.4916,0 -1,0.473119 -1,1 l 0,1 c -0.686803,0 -0.883535,0 -1.5,0 C 0.5208383,6 0,6.482986 0,7.5 l 0,19 C 0,27.503839 0.5009716,28 1.4999998,28 L 30.34375,28 C 31.21572,28 32,27.376781 32,26.5 L 32,9.551777 C 32,8.537794 31.580916,8 30.5,8 L 28,8 28,5 C 28,4.473119 27.4916,4 27,4 z M 19,7 l 0,2 12,0 0,18 -30.0000002,0 0,-20 z"
     id="path3784"
     inkscape:connector-curvature="0"
     sodipodi:nodetypes="ssccssssscccsssccccccc" />
  <path
     style="opacity:1;fill:replacecolour3;fill-opacity:1.;stroke:none"
     d="M 12 11 C 10.892 11 10 11.892 10 13 L 10 23 C 10 24.108 10.892 25 12 25 L 20 25 C 21.108 25 22 24.108 22 23 L 22 16 L 17 11 L 12 11 z M 12 13 L 17 13 L 17 16 L 20 16 L 20 23 L 12 23 L 12 13 z M 13.25 17 C 13.1115 17 13 17.1115 13 17.25 L 13 17.75 C 13 17.8885 13.1115 18 13.25 18 L 16.75 18 C 16.8885 18 17 17.8885 17 17.75 L 17 17.25 C 17 17.1115 16.8885 17 16.75 17 L 13.25 17 z M 13.25 19 C 13.1115 19 13 19.1115 13 19.25 L 13 19.75 C 13 19.8885 13.1115 20 13.25 20 L 18.75 20 C 18.8885 20 19 19.8885 19 19.75 L 19 19.25 C 19 19.1115 18.8885 19 18.75 19 L 13.25 19 z M 13.25 21 C 13.1115 21 13 21.1115 13 21.25 L 13 21.75 C 13 21.8885 13.1115 22 13.25 22 L 18.75 22 C 18.8885 22 19 21.8885 19 21.75 L 19 21.25 C 19 21.1115 18.8885 21 18.75 21 L 13.25 21 z "
     id="rect2991-3" />
</svg>

<svg xmlns="http://www.w3.org/2000/svg" viewBox="0 0 32 32">
 <path d="m 4 4 c -0.492 0 -1 0.473 -1 1 l 0 1 c -0.667 0 -0.833 0 -1.5 0 c -0.979 0 -1.5 0.494 -1.5 1.5 l 0 19 c 0 1.031 0.523 1.5 1.5 1.5 l 28.844 0 c 0.872 0 1.656 -0.623 1.656 -1.5 l 0 -17 c 0 -0.941 -0.425 -1.5 -1.5 -1.5 l -2.5 0 0 -3 c 0 -0.527 -0.508 -1 -1 -1 z" style="visibility:visible;fill:replacecolour1;fill-opacity:1;stroke:none;display:inline;color:replacecolour3;fill-rule:nonzero"/>
 <path d="m 4 4 c -0.492 0 -1 0.473 -1 1 l 0 1 c -0.687 0 -0.884 0 -1.5 0 c -0.979 0 -1.5 0.483 -1.5 1.5 l 0 19 c 0 1 0.501 1.5 1.5 1.5 l 28.844 0 c 0.872 0 1.656 -0.623 1.656 -1.5 l 0 -16.948 c 0 -1.014 -0.419 -1.552 -1.5 -1.552 l -2.5 0 0 -3 c 0 -0.527 -0.508 -1 -1 -1 z m 15 3 l 0 2 12 0 0 18 -30 0 0 -20 z" style="visibility:visible;fill:replacecolour2;fill-opacity:1;stroke:none;display:inline;color:replacecolour3;fill-rule:nonzero"/>
 <path d="m 12 11 c -1.108 0 -2 0.892 -2 2 l 0 10 c 0 1.108 0.892 2 2 2 l 8 0 c 1.108 0 2 -0.892 2 -2 l 0 -7 l -5 -5 l -5 0 z m 0 2 l 5 0 l 0 3 l 3 0 l 0 7 l -8 0 l 0 -10 z m 1.25 4 c -0.139 0 -0.25 0.111 -0.25 0.25 l 0 0.5 c 0 0.139 0.111 0.25 0.25 0.25 l 3.5 0 c 0.139 0 0.25 -0.111 0.25 -0.25 l 0 -0.5 c 0 -0.139 -0.111 -0.25 -0.25 -0.25 l -3.5 0 z m 0 2 c -0.139 0 -0.25 0.111 -0.25 0.25 l 0 0.5 c 0 0.139 0.111 0.25 0.25 0.25 l 5.5 0 c 0.139 0 0.25 -0.111 0.25 -0.25 l 0 -0.5 c 0 -0.139 -0.111 -0.25 -0.25 -0.25 l -5.5 0 z m 0 2 c -0.139 0 -0.25 0.111 -0.25 0.25 l 0 0.5 c 0 0.139 0.111 0.25 0.25 0.25 l 5.5 0 c 0.139 0 0.25 -0.111 0.25 -0.25 l 0 -0.5 c 0 -0.139 -0.111 -0.25 -0.25 -0.25 l -5.5 0 z" style="fill:replacecolour3;opacity:1;fill-opacity:1;stroke:none"/>
</svg>
